;FLAVOR:Marlin
;TIME:553
;Filament used: 0.244327m
;Layer height: 0.2
;MINX:105.2
;MINY:105.2
;MINZ:0.2
;MAXX:114.8
;MAXY:114.8
;MAXZ:10
;Generated with Cura_SteamEngine 4.8.0
M140 S60
M105
M190 S60
M104 S210
M105
M109 S210
M82 ;absolute extrusion mode
M201 X500.00 Y500.00 Z100.00 E5000.00 ;Setup machine max acceleration
M203 X500.00 Y500.00 Z10.00 E50.00 ;Setup machine max feedrate
M204 P500.00 R1000.00 T500.00 ;Setup Print/Retract/Travel acceleration
M205 X8.00 Y8.00 Z0.40 E5.00 ;Setup Jerk
M220 S100 ;Reset Feedrate
M221 S100 ;Reset Flowrate

G28 ;Home
M420 S1 Z2 ;Enable ABL using saved Mesh and Fade Height

G92 E0 ;Reset Extruder
G1 Z2.0 F3000 ;Move Z Axis up
G1 X10.1 Y20 Z0.28 F5000.0 ;Move to start position
G1 X10.1 Y200.0 Z0.28 F1500.0 E15 ;Draw the first line
G1 X10.4 Y200.0 Z0.28 F5000.0 ;Move to side a little
G1 X10.4 Y20 Z0.28 F1500.0 E30 ;Draw the second line
G92 E0 ;Reset Extruder
G1 Z2.0 F3000 ;Move Z Axis up

G92 E0
G92 E0
G1 F1500 E-6.5
;LAYER_COUNT:50
;LAYER:0
M107
;MESH:10x10x10mm_cube.stl
G0 F6000 X114.4 Y114.4 Z0.2
;TYPE:WALL-INNER
G1 F1500 E0
G1 F1200 X105.6 Y114.4 E0.29269
G1 X105.6 Y105.6 E0.58538
G1 X114.4 Y105.6 E0.87807
G1 X114.4 Y114.4 E1.17076
G0 F6000 X114.8 Y114.8
;TYPE:WALL-OUTER
G1 F1200 X105.2 Y114.8 E1.49005
G1 X105.2 Y105.2 E1.80935
G1 X114.8 Y105.2 E2.12865
G1 X114.8 Y114.8 E2.44795
G0 F6000 X114.53 Y114.53
G0 X114.29 Y114.01
G0 X114.01 Y114.01
;TYPE:SKIN
G1 F1200 X105.99 Y114.01 E2.71469
G1 X105.99 Y105.99 E2.98144
G1 X114.01 Y105.99 E3.24818
G1 X114.01 Y114.01 E3.51493
G0 F6000 X114.29 Y114.01
G0 X114.29 Y106.495
G0 X113.849 Y106.495
G1 F1200 X113.504 Y106.15 E3.53116
G0 F6000 X112.938 Y106.15
G1 F1200 X113.849 Y107.061 E3.57401
G0 F6000 X113.849 Y107.627
G1 F1200 X112.372 Y106.15 E3.64348
G0 F6000 X111.807 Y106.15
G1 F1200 X113.849 Y108.192 E3.73953
G0 F6000 X113.849 Y108.758
G1 F1200 X111.241 Y106.15 E3.8622
G0 F6000 X110.675 Y106.15
G1 F1200 X113.849 Y109.324 E4.0115
G0 F6000 X113.849 Y109.89
G1 F1200 X110.109 Y106.15 E4.18742
G0 F6000 X109.544 Y106.15
G1 F1200 X113.849 Y110.455 E4.38991
G0 F6000 X113.849 Y111.021
G1 F1200 X108.978 Y106.15 E4.61903
G0 F6000 X108.412 Y106.15
G1 F1200 X113.849 Y111.587 E4.87477
G0 F6000 X113.849 Y112.152
G1 F1200 X107.847 Y106.15 E5.15708
G0 F6000 X107.281 Y106.15
G1 F1200 X113.849 Y112.718 E5.46602
G0 F6000 X113.849 Y113.284
G1 F1200 X106.715 Y106.15 E5.80158
G0 F6000 X106.149 Y106.149
G1 F1200 X113.849 Y113.849 E6.16377
G0 F6000 X113.283 Y113.849
G1 F1200 X106.149 Y106.715 E6.49933
G0 F6000 X106.149 Y107.28
G1 F1200 X112.717 Y113.849 E6.80829
G0 F6000 X112.152 Y113.849
G1 F1200 X106.149 Y107.846 E7.09066
G0 F6000 X106.149 Y108.412
G1 F1200 X111.586 Y113.849 E7.3464
G0 F6000 X111.02 Y113.849
G1 F1200 X106.149 Y108.977 E7.57554
G0 F6000 X106.149 Y109.543
G1 F1200 X110.455 Y113.849 E7.77808
G0 F6000 X109.889 Y113.849
G1 F1200 X106.149 Y110.109 E7.95399
G0 F6000 X106.149 Y110.674
G1 F1200 X109.323 Y113.849 E8.10331
G0 F6000 X108.757 Y113.849
G1 F1200 X106.149 Y111.24 E8.22601
G0 F6000 X106.149 Y111.806
G1 F1200 X108.192 Y113.849 E8.32211
G0 F6000 X107.626 Y113.849
G1 F1200 X106.149 Y112.371 E8.3916
G0 F6000 X106.149 Y112.937
G1 F1200 X107.06 Y113.849 E8.43448
G0 F6000 X106.495 Y113.849
G1 F1200 X106.149 Y113.503 E8.45075
G0 F6000 X105.8 Y113.503
;MESH:NONMESH
G0 F300 X105.8 Y113.503 Z0.4
G0 F6000 X105.71 Y113.503
G0 X105.782 Y114.218
G0 X114.4 Y114.4
;TIME_ELAPSED:20.122565
;LAYER:1
M106 S85
;TYPE:WALL-INNER
;MESH:10x10x10mm_cube.stl
G1 F1550.8 X105.6 Y114.4 E8.74344
G1 X105.6 Y105.6 E9.03613
G1 X114.4 Y105.6 E9.32882
G1 X114.4 Y114.4 E9.62151
G0 F9000 X114.8 Y114.8
;TYPE:WALL-OUTER
G1 F1550.8 X105.2 Y114.8 E9.94081
G1 X105.2 Y105.2 E10.2601
G1 X114.8 Y105.2 E10.5794
G1 X114.8 Y114.8 E10.8987
G0 F9000 X114.53 Y114.53
G0 X114.29 Y114.01
G0 X114.01 Y114.01
;TYPE:SKIN
G1 F1550.8 X105.99 Y114.01 E11.16544
G1 X105.99 Y105.99 E11.43219
G1 X114.01 Y105.99 E11.69894
G1 X114.01 Y114.01 E11.96568
G0 F9000 X113.849 Y113.556
G1 F1550.8 X113.555 Y113.849 E11.97949
G0 F9000 X112.99 Y113.849
G1 F1550.8 X113.849 Y112.99 E12.01989
G0 F9000 X113.849 Y112.425
G1 F1550.8 X112.424 Y113.849 E12.0869
G0 F9000 X111.858 Y113.849
G1 F1550.8 X113.849 Y111.859 E12.18052
G0 F9000 X113.849 Y111.293
G1 F1550.8 X111.292 Y113.849 E12.30077
G0 F9000 X110.727 Y113.849
G1 F1550.8 X113.849 Y110.727 E12.44762
G0 F9000 X113.849 Y110.162
G1 F1550.8 X110.161 Y113.849 E12.62107
G0 F9000 X109.595 Y113.849
G1 F1550.8 X113.849 Y109.596 E12.82114
G0 F9000 X113.849 Y109.03
G1 F1550.8 X109.03 Y113.849 E13.04781
G0 F9000 X108.464 Y113.849
G1 F1550.8 X113.849 Y108.465 E13.30108
G0 F9000 X113.849 Y107.899
G1 F1550.8 X107.898 Y113.849 E13.58098
G0 F9000 X107.333 Y113.849
G1 F1550.8 X113.849 Y107.333 E13.88747
G0 F9000 X113.849 Y106.768
G1 F1550.8 X106.767 Y113.849 E14.22056
G0 F9000 X106.201 Y113.849
G1 F1550.8 X113.849 Y106.202 E14.58028
G0 F9000 X113.336 Y106.149
G1 F1550.8 X106.15 Y113.335 E14.91829
G0 F9000 X106.15 Y112.77
G1 F1550.8 X112.77 Y106.149 E15.22969
G0 F9000 X112.205 Y106.149
G1 F1550.8 X106.15 Y112.204 E15.5145
G0 F9000 X106.15 Y111.638
G1 F1550.8 X111.639 Y106.149 E15.77269
G0 F9000 X111.073 Y106.149
G1 F1550.8 X106.15 Y111.073 E16.00427
G0 F9000 X106.15 Y110.507
G1 F1550.8 X110.508 Y106.149 E16.20926
G0 F9000 X109.942 Y106.149
G1 F1550.8 X106.15 Y109.941 E16.38763
G0 F9000 X106.15 Y109.375
G1 F1550.8 X109.376 Y106.149 E16.53937
G0 F9000 X108.811 Y106.149
G1 F1550.8 X106.15 Y108.81 E16.66453
G0 F9000 X106.15 Y108.244
G1 F1550.8 X108.245 Y106.149 E16.76307
G0 F9000 X107.679 Y106.149
G1 F1550.8 X106.15 Y107.678 E16.83499
G0 F9000 X106.15 Y107.113
G1 F1550.8 X107.113 Y106.149 E16.88031
G0 F9000 X106.548 Y106.149
G1 F1550.8 X106.15 Y106.547 E16.89903
G0 F9000 X105.8 Y106.547
;MESH:NONMESH
G0 F300 X105.8 Y106.547 Z0.6
G0 F9000 X105.71 Y106.547
G0 X105.782 Y114.218
G0 X114.4 Y114.4
;TIME_ELAPSED:33.200920
;LAYER:2
M106 S170
;TYPE:WALL-INNER
;MESH:10x10x10mm_cube.stl
G1 F1553 X105.6 Y114.4 E17.19172
G1 X105.6 Y105.6 E17.48441
G1 X114.4 Y105.6 E17.7771
G1 X114.4 Y114.4 E18.06979
G0 F12000 X114.8 Y114.8
;TYPE:WALL-OUTER
G1 F1553 X105.2 Y114.8 E18.38909
G1 X105.2 Y105.2 E18.70839
G1 X114.8 Y105.2 E19.02768
G1 X114.8 Y114.8 E19.34698
G0 F12000 X114.53 Y114.53
G0 X114.29 Y114.01
G0 X114.01 Y114.01
;TYPE:SKIN
G1 F1553 X105.99 Y114.01 E19.61373
G1 X105.99 Y105.99 E19.88047
G1 X114.01 Y105.99 E20.14722
G1 X114.01 Y114.01 E20.41397
G0 F12000 X114.29 Y114.01
G0 X114.29 Y106.495
G0 X113.849 Y106.495
G1 F1553 X113.504 Y106.15 E20.43019
G0 F12000 X112.938 Y106.15
G1 F1553 X113.849 Y107.061 E20.47304
G0 F12000 X113.849 Y107.627
G1 F1553 X112.372 Y106.15 E20.54252
G0 F12000 X111.807 Y106.15
G1 F1553 X113.849 Y108.192 E20.63857
G0 F12000 X113.849 Y108.758
G1 F1553 X111.241 Y106.15 E20.76124
G0 F12000 X110.675 Y106.15
G1 F1553 X113.849 Y109.324 E20.91053
G0 F12000 X113.849 Y109.89
G1 F1553 X110.109 Y106.15 E21.08645
G0 F12000 X109.544 Y106.15
G1 F1553 X113.849 Y110.455 E21.28895
G0 F12000 X113.849 Y111.021
G1 F1553 X108.978 Y106.15 E21.51806
G0 F12000 X108.412 Y106.15
G1 F1553 X113.849 Y111.587 E21.7738
G0 F12000 X113.849 Y112.152
G1 F1553 X107.847 Y106.15 E22.05612
G0 F12000 X107.281 Y106.15
G1 F1553 X113.849 Y112.718 E22.36506
G0 F12000 X113.849 Y113.284
G1 F1553 X106.715 Y106.15 E22.70062
G0 F12000 X106.149 Y106.149
G1 F1553 X113.849 Y113.849 E23.0628
G0 F12000 X113.283 Y113.849
G1 F1553 X106.149 Y106.715 E23.39836
G0 F12000 X106.149 Y107.28
G1 F1553 X112.717 Y113.849 E23.70733
G0 F12000 X112.152 Y113.849
G1 F1553 X106.149 Y107.846 E23.98969
G0 F12000 X106.149 Y108.412
G1 F1553 X111.586 Y113.849 E24.24543
G0 F12000 X111.02 Y113.849
G1 F1553 X106.149 Y108.977 E24.47457
G0 F12000 X106.149 Y109.543
G1 F1553 X110.455 Y113.849 E24.67711
G0 F12000 X109.889 Y113.849
G1 F1553 X106.149 Y110.109 E24.85303
G0 F12000 X106.149 Y110.674
G1 F1553 X109.323 Y113.849 E25.00235
G0 F12000 X108.757 Y113.849
G1 F1553 X106.149 Y111.24 E25.12504
G0 F12000 X106.149 Y111.806
G1 F1553 X108.192 Y113.849 E25.22114
G0 F12000 X107.626 Y113.849
G1 F1553 X106.149 Y112.371 E25.29064
G0 F12000 X106.149 Y112.937
G1 F1553 X107.06 Y113.849 E25.33351
G0 F12000 X106.495 Y113.849
G1 F1553 X106.149 Y113.503 E25.34979
G0 F12000 X105.8 Y113.503
;MESH:NONMESH
G0 F300 X105.8 Y113.503 Z0.8
G0 F12000 X105.71 Y113.503
G0 X105.782 Y114.218
G0 X114.4 Y114.4
;TIME_ELAPSED:46.393342
;LAYER:3
M106 S255
;TYPE:WALL-INNER
;MESH:10x10x10mm_cube.stl
G1 F1544.1 X105.6 Y114.4 E25.64248
G1 X105.6 Y105.6 E25.93516
G1 X114.4 Y105.6 E26.22785
G1 X114.4 Y114.4 E26.52054
G0 F12000 X114.8 Y114.8
;TYPE:WALL-OUTER
G1 F1544.1 X105.2 Y114.8 E26.83984
G1 X105.2 Y105.2 E27.15914
G1 X114.8 Y105.2 E27.47843
G1 X114.8 Y114.8 E27.79773
G0 F12000 X114.53 Y114.53
G0 X114.29 Y114.01
G0 X114.01 Y114.01
;TYPE:SKIN
G1 F1544.1 X105.99 Y114.01 E28.06448
G1 X105.99 Y105.99 E28.33122
G1 X114.01 Y105.99 E28.59797
G1 X114.01 Y114.01 E28.86472
G0 F12000 X113.849 Y113.556
G1 F1544.1 X113.555 Y113.849 E28.87852
G0 F12000 X112.99 Y113.849
G1 F1544.1 X113.849 Y112.99 E28.91893
G0 F12000 X113.849 Y112.425
G1 F1544.1 X112.424 Y113.849 E28.98593
G0 F12000 X111.858 Y113.849
G1 F1544.1 X113.849 Y111.859 E29.07956
G0 F12000 X113.849 Y111.293
G1 F1544.1 X111.292 Y113.849 E29.19981
G0 F12000 X110.727 Y113.849
G1 F1544.1 X113.849 Y110.727 E29.34666
G0 F12000 X113.849 Y110.162
G1 F1544.1 X110.161 Y113.849 E29.52011
G0 F12000 X109.595 Y113.849
G1 F1544.1 X113.849 Y109.596 E29.72018
G0 F12000 X113.849 Y109.03
G1 F1544.1 X109.03 Y113.849 E29.94685
G0 F12000 X108.464 Y113.849
G1 F1544.1 X113.849 Y108.465 E30.20012
G0 F12000 X113.849 Y107.899
G1 F1544.1 X107.898 Y113.849 E30.48001
G0 F12000 X107.333 Y113.849
G1 F1544.1 X113.849 Y107.333 E30.78651
G0 F12000 X113.849 Y106.768
G1 F1544.1 X106.767 Y113.849 E31.1196
G0 F12000 X106.201 Y113.849
G1 F1544.1 X113.849 Y106.202 E31.47931
G0 F12000 X113.336 Y106.149
G1 F1544.1 X106.15 Y113.335 E31.81732
G0 F12000 X106.15 Y112.77
G1 F1544.1 X112.77 Y106.149 E32.12873
G0 F12000 X112.205 Y106.149
G1 F1544.1 X106.15 Y112.204 E32.41354
G0 F12000 X106.15 Y111.638
G1 F1544.1 X111.639 Y106.149 E32.67172
G0 F12000 X111.073 Y106.149
G1 F1544.1 X106.15 Y111.073 E32.90331
G0 F12000 X106.15 Y110.507
G1 F1544.1 X110.508 Y106.149 E33.1083
G0 F12000 X109.942 Y106.149
G1 F1544.1 X106.15 Y109.941 E33.28666
G0 F12000 X106.15 Y109.375
G1 F1544.1 X109.376 Y106.149 E33.4384
G0 F12000 X108.811 Y106.149
G1 F1544.1 X106.15 Y108.81 E33.56357
G0 F12000 X106.15 Y108.244
G1 F1544.1 X108.245 Y106.149 E33.66211
G0 F12000 X107.679 Y106.149
G1 F1544.1 X106.15 Y107.678 E33.73403
G0 F12000 X106.15 Y107.113
G1 F1544.1 X107.113 Y106.149 E33.77935
G0 F12000 X106.548 Y106.149
G1 F1544.1 X106.15 Y106.547 E33.79807
G0 F12000 X105.8 Y106.547
;MESH:NONMESH
G0 F300 X105.8 Y106.547 Z1
G0 F12000 X105.71 Y106.547
G0 X105.782 Y114.218
G0 X114.4 Y114.4
;TIME_ELAPSED:59.555362
;LAYER:4
;TYPE:WALL-INNER
;MESH:10x10x10mm_cube.stl
G1 F1553 X105.6 Y114.4 E34.09076
G1 X105.6 Y105.6 E34.38345
G1 X114.4 Y105.6 E34.67614
G1 X114.4 Y114.4 E34.96882
G0 F12000 X114.8 Y114.8
;TYPE:WALL-OUTER
G1 F1553 X105.2 Y114.8 E35.28812
G1 X105.2 Y105.2 E35.60742
G1 X114.8 Y105.2 E35.92672
G1 X114.8 Y114.8 E36.24601
G0 F12000 X114.53 Y114.53
G0 X114.29 Y114.01
G0 X114.01 Y114.01
;TYPE:SKIN
G1 F1553 X105.99 Y114.01 E36.51276
G1 X105.99 Y105.99 E36.77951
G1 X114.01 Y105.99 E37.04625
G1 X114.01 Y114.01 E37.313
G0 F12000 X114.29 Y114.01
G0 X114.29 Y106.495
G0 X113.849 Y106.495
G1 F1553 X113.504 Y106.15 E37.32923
G0 F12000 X112.938 Y106.15
G1 F1553 X113.849 Y107.061 E37.37208
G0 F12000 X113.849 Y107.627
G1 F1553 X112.372 Y106.15 E37.44155
G0 F12000 X111.807 Y106.15
G1 F1553 X113.849 Y108.192 E37.5376
G0 F12000 X113.849 Y108.758
G1 F1553 X111.241 Y106.15 E37.66027
G0 F12000 X110.675 Y106.15
G1 F1553 X113.849 Y109.324 E37.80957
G0 F12000 X113.849 Y109.89
G1 F1553 X110.109 Y106.15 E37.98549
G0 F12000 X109.544 Y106.15
G1 F1553 X113.849 Y110.455 E38.18798
G0 F12000 X113.849 Y111.021
G1 F1553 X108.978 Y106.15 E38.4171
G0 F12000 X108.412 Y106.15
G1 F1553 X113.849 Y111.587 E38.67284
G0 F12000 X113.849 Y112.152
G1 F1553 X107.847 Y106.15 E38.95515
G0 F12000 X107.281 Y106.15
G1 F1553 X113.849 Y112.718 E39.26409
G0 F12000 X113.849 Y113.284
G1 F1553 X106.715 Y106.15 E39.59965
G0 F12000 X106.149 Y106.149
G1 F1553 X113.849 Y113.849 E39.96184
G0 F12000 X113.283 Y113.849
G1 F1553 X106.149 Y106.715 E40.2974
G0 F12000 X106.149 Y107.28
G1 F1553 X112.717 Y113.849 E40.60636
G0 F12000 X112.152 Y113.849
G1 F1553 X106.149 Y107.846 E40.88872
G0 F12000 X106.149 Y108.412
G1 F1553 X111.586 Y113.849 E41.14446
G0 F12000 X111.02 Y113.849
G1 F1553 X106.149 Y108.977 E41.3736
G0 F12000 X106.149 Y109.543
G1 F1553 X110.455 Y113.849 E41.57614
G0 F12000 X109.889 Y113.849
G1 F1553 X106.149 Y110.109 E41.75206
G0 F12000 X106.149 Y110.674
G1 F1553 X109.323 Y113.849 E41.90138
G0 F12000 X108.757 Y113.849
G1 F1553 X106.149 Y111.24 E42.02408
G0 F12000 X106.149 Y111.806
G1 F1553 X108.192 Y113.849 E42.12017
G0 F12000 X107.626 Y113.849
G1 F1553 X106.149 Y112.371 E42.18967
G0 F12000 X106.149 Y112.937
G1 F1553 X107.06 Y113.849 E42.23255
G0 F12000 X106.495 Y113.849
G1 F1553 X106.149 Y113.503 E42.24882
G0 F12000 X105.8 Y113.503
;MESH:NONMESH
G0 F300 X105.8 Y113.503 Z1.2
G0 F12000 X105.71 Y113.503
G0 X105.782 Y114.218
G0 X114.4 Y114.4
;TIME_ELAPSED:72.747784
;LAYER:5
;TYPE:WALL-INNER
;MESH:10x10x10mm_cube.stl
G1 F1544.1 X105.6 Y114.4 E42.54151
G1 X105.6 Y105.6 E42.8342
G1 X114.4 Y105.6 E43.12689
G1 X114.4 Y114.4 E43.41958
G0 F12000 X114.8 Y114.8
;TYPE:WALL-OUTER
G1 F1544.1 X105.2 Y114.8 E43.73887
G1 X105.2 Y105.2 E44.05817
G1 X114.8 Y105.2 E44.37747
G1 X114.8 Y114.8 E44.69677
G0 F12000 X114.53 Y114.53
G0 X114.29 Y114.01
G0 X114.01 Y114.01
;TYPE:SKIN
G1 F1544.1 X105.99 Y114.01 E44.96351
G1 X105.99 Y105.99 E45.23026
G1 X114.01 Y105.99 E45.497
G1 X114.01 Y114.01 E45.76375
G0 F12000 X113.849 Y113.556
G1 F1544.1 X113.555 Y113.849 E45.77756
G0 F12000 X112.99 Y113.849
G1 F1544.1 X113.849 Y112.99 E45.81796
G0 F12000 X113.849 Y112.425
G1 F1544.1 X112.424 Y113.849 E45.88497
G0 F12000 X111.858 Y113.849
G1 F1544.1 X113.849 Y111.859 E45.97859
G0 F12000 X113.849 Y111.293
G1 F1544.1 X111.292 Y113.849 E46.09884
G0 F12000 X110.727 Y113.849
G1 F1544.1 X113.849 Y110.727 E46.24569
G0 F12000 X113.849 Y110.162
G1 F1544.1 X110.161 Y113.849 E46.41914
G0 F12000 X109.595 Y113.849
G1 F1544.1 X113.849 Y109.596 E46.61921
G0 F12000 X113.849 Y109.03
G1 F1544.1 X109.03 Y113.849 E46.84588
G0 F12000 X108.464 Y113.849
G1 F1544.1 X113.849 Y108.465 E47.09915
G0 F12000 X113.849 Y107.899
G1 F1544.1 X107.898 Y113.849 E47.37905
G0 F12000 X107.333 Y113.849
G1 F1544.1 X113.849 Y107.333 E47.68554
G0 F12000 X113.849 Y106.768
G1 F1544.1 X106.767 Y113.849 E48.01863
G0 F12000 X106.201 Y113.849
G1 F1544.1 X113.849 Y106.202 E48.37835
G0 F12000 X113.336 Y106.149
G1 F1544.1 X106.15 Y113.335 E48.71635
G0 F12000 X106.15 Y112.77
G1 F1544.1 X112.77 Y106.149 E49.02776
G0 F12000 X112.205 Y106.149
G1 F1544.1 X106.15 Y112.204 E49.31257
G0 F12000 X106.15 Y111.638
G1 F1544.1 X111.639 Y106.149 E49.57076
G0 F12000 X111.073 Y106.149
G1 F1544.1 X106.15 Y111.073 E49.80234
G0 F12000 X106.15 Y110.507
G1 F1544.1 X110.508 Y106.149 E50.00733
G0 F12000 X109.942 Y106.149
G1 F1544.1 X106.15 Y109.941 E50.18569
G0 F12000 X106.15 Y109.375
G1 F1544.1 X109.376 Y106.149 E50.33743
G0 F12000 X108.811 Y106.149
G1 F1544.1 X106.15 Y108.81 E50.4626
G0 F12000 X106.15 Y108.244
G1 F1544.1 X108.245 Y106.149 E50.56114
G0 F12000 X107.679 Y106.149
G1 F1544.1 X106.15 Y107.678 E50.63306
G0 F12000 X106.15 Y107.113
G1 F1544.1 X107.113 Y106.149 E50.67838
G0 F12000 X106.548 Y106.149
G1 F1544.1 X106.15 Y106.547 E50.6971
G0 F12000 X105.8 Y106.547
;MESH:NONMESH
G0 F300 X105.8 Y106.547 Z1.4
G0 F12000 X105.71 Y106.547
G0 X105.782 Y114.218
G0 X114.4 Y114.4
;TIME_ELAPSED:85.909804
;LAYER:6
;TYPE:WALL-INNER
;MESH:10x10x10mm_cube.stl
G1 F600 X105.6 Y114.4 E50.98979
G1 X105.6 Y105.6 E51.28248
G1 X114.4 Y105.6 E51.57517
G1 X114.4 Y114.4 E51.86786
G0 F12000 X114.8 Y114.8
;TYPE:WALL-OUTER
G1 F600 X105.2 Y114.8 E52.18716
G1 X105.2 Y105.2 E52.50645
G1 X114.8 Y105.2 E52.82575
